X:263
T: WAS HOERT MAN DENN NEUES VOM KRIEGEN
N: E1404
O: Europa, Mitteleuropa, Deutschland, Hessen, Taunus
R: Staende -, Soldaten - Lied, Klage, anti - Kriegs - Lied
M: 6/8
L: 1/16
K: G
D2 | B3BB2B2A2G2 | G2F4z4
AB | c3de2A3AA2 | B6z4
D2 | B3BB2B2A2G2 | G2F4z4
AB | c3de2A3AA2 | B6z4
G2 | ^c3cc2c2B2A2 | d2d4z4
G2 | ^c3cc2c2B2A2 | d2d4z4
d2 | B3BB2B2c2d2 | e6z4
e2 | d3dd2f2A2c2 | B6z4

